public/images/images/13.svg

<svg enable-background="new 0 0 100 100" viewBox="0 0 100 100" xmlns="http://www.w3.org/2000/svg"><path d="m50 0h-50v50c0-13.3 5.3-26 14.6-35.3 9.4-9.4 22.1-14.7 35.4-14.7z"/><path d="m50 100h50v-50c0 13.3-5.3 26-14.6 35.3-9.4 9.4-22.1 14.7-35.4 14.7z"/><path d="m0 50v50h50c-13.3 0-26-5.3-35.4-14.6-9.3-9.4-14.6-22.1-14.6-35.4z"/><path d="m50 0c13.3 0 26 5.3 35.3 14.6 9.4 9.4 14.7 22.1 14.7 35.4v-50z"/><path d="m50 12.5c-9.9 0-19.5 4-26.5 11s-11 16.6-11 26.5 4 19.5 11 26.5 16.6 11 26.5 11 19.5-4 26.5-11 11-16.6 11-26.5-3.9-19.5-11-26.5c-7-7-16.6-11-26.5-11zm0 62.5c-6.6 0-13-2.6-17.7-7.3s-7.3-11.1-7.3-17.7 2.6-13 7.3-17.7 11.1-7.3 17.7-7.3c3.3 0 6.5.6 9.6 1.9 3 1.3 5.8 3.1 8.1 5.4s4.2 5.1 5.4 8.1c1.3 3 1.9 6.3 1.9 9.6 0 6.6-2.6 13-7.3 17.7s-11.1 7.3-17.7 7.3z"/><path d="m50 62.5c6.9 0 12.5-5.6 12.5-12.5s-5.6-12.5-12.5-12.5-12.5 5.6-12.5 12.5 5.6 12.5 12.5 12.5z"/></svg>

<svg version="1.1" id="Ebene_1" xmlns="http://www.w3.org/2000/svg" xmlns:xlink="http://www.w3.org/1999/xlink" x="0px" y="0px" viewBox="0 0 100 100" style="enable-background:new 0 0 100 100;" xml:space="preserve">
<g>
	<path d="M50,0H0v50c0-13.3,5.3-26,14.6-35.3C24,5.3,36.7,0,50,0L50,0z"/>
	<path d="M50,100h50V50c0,13.3-5.3,26-14.6,35.3C76,94.7,63.3,100,50,100L50,100z"/>
	<path d="M0,50v50h50c-13.3,0-26-5.3-35.4-14.6C5.3,76,0,63.3,0,50L0,50z"/>
	<path d="M50,0c13.3,0,26,5.3,35.3,14.6C94.7,24,100,36.7,100,50V0H50z"/>
	<path d="M50,12.5c-9.9,0-19.5,4-26.5,11s-11,16.6-11,26.5s4,19.5,11,26.5s16.6,11,26.5,11s19.5-4,26.5-11
		s11-16.6,11-26.5s-3.9-19.5-11-26.5C69.5,16.5,59.9,12.5,50,12.5z M50,75c-6.6,0-13-2.6-17.7-7.3S25,56.6,25,50s2.6-13,7.3-17.7
		S43.4,25,50,25c3.3,0,6.5,0.6,9.6,1.9c3,1.3,5.8,3.1,8.1,5.4c2.3,2.3,4.2,5.1,5.4,8.1c1.3,3,1.9,6.3,1.9,9.6c0,6.6-2.6,13-7.3,17.7
		C63,72.4,56.6,75,50,75z"/>
	<path d="M50,62.5c6.9,0,12.5-5.6,12.5-12.5S56.9,37.5,50,37.5S37.5,43.1,37.5,50S43.1,62.5,50,62.5z"/>
</g>
</svg>
